images/icons/vk.svg

<svg width="17" height="10" viewBox="0 0 17 10" fill="none" xmlns="http://www.w3.org/2000/svg">
<path d="M16.5783 8.58775C16.5581 8.54425 16.5393 8.50817 16.5218 8.47925C16.2326 7.95848 15.6801 7.31924 14.8644 6.56137L14.8471 6.54401L14.8386 6.5355L14.8298 6.52678H14.8211C14.4508 6.17388 14.2164 5.93659 14.1182 5.81511C13.9386 5.58369 13.8984 5.34944 13.9966 5.1121C14.0659 4.93278 14.3265 4.55407 14.7776 3.97547C15.0148 3.66882 15.2027 3.42306 15.3416 3.2379C16.3425 1.90726 16.7764 1.05696 16.6432 0.686679L16.5916 0.600149C16.5568 0.548049 16.4671 0.500392 16.3226 0.456929C16.1779 0.413557 15.9928 0.406385 15.7671 0.435289L13.2681 0.452552C13.2276 0.438207 13.1697 0.439544 13.0945 0.456929C13.0192 0.474314 12.9816 0.483037 12.9816 0.483037L12.9381 0.504769L12.9036 0.530879C12.8746 0.548139 12.8428 0.578509 12.8081 0.621909C12.7735 0.665159 12.7446 0.715919 12.7215 0.773759C12.4494 1.47375 12.1401 2.12458 11.7929 2.72619C11.5788 3.08493 11.3822 3.39583 11.2027 3.65907C11.0234 3.92222 10.873 4.11609 10.7516 4.24038C10.63 4.36478 10.5203 4.46444 10.4217 4.53973C10.3234 4.61504 10.2483 4.64686 10.1962 4.63522C10.1441 4.62359 10.0951 4.61204 10.0486 4.60049C9.96762 4.54839 9.90262 4.47754 9.85352 4.38788C9.80412 4.29822 9.77102 4.18537 9.75362 4.04941C9.73632 3.91337 9.72612 3.79635 9.72322 3.69797C9.72052 3.59971 9.72172 3.46072 9.72762 3.28139C9.73362 3.10198 9.73632 2.98059 9.73632 2.91694C9.73632 2.69708 9.74062 2.45845 9.74922 2.20102C9.75802 1.94358 9.76512 1.73961 9.77102 1.58934C9.77692 1.43892 9.77962 1.27979 9.77962 1.11201C9.77962 0.944239 9.76942 0.812659 9.74922 0.717159C9.72932 0.621789 9.69872 0.529209 9.65842 0.439452C9.61782 0.349792 9.55842 0.280432 9.48052 0.231195C9.40242 0.182017 9.30532 0.142992 9.18982 0.113997C8.88316 0.0446066 8.49267 0.00707059 8.01821 0.00123458C6.94224 -0.0103144 6.25087 0.0591656 5.94426 0.209585C5.82277 0.273138 5.71284 0.359973 5.61455 0.469816C5.51039 0.597139 5.49586 0.666619 5.57106 0.678049C5.91821 0.730049 6.16397 0.854448 6.30862 1.05113L6.36075 1.15535C6.40129 1.23054 6.44177 1.36367 6.48229 1.55454C6.52275 1.74541 6.54886 1.95656 6.56034 2.18785C6.58921 2.61024 6.58921 2.9718 6.56034 3.27258C6.53137 3.57348 6.50402 3.80772 6.47792 3.97549C6.45181 4.14327 6.41278 4.27922 6.36075 4.38332C6.30862 4.48745 6.27394 4.55109 6.25656 4.57419C6.2392 4.59729 6.22473 4.61185 6.21325 4.61756C6.13805 4.64638 6.05985 4.66106 5.97891 4.66106C5.89785 4.66106 5.79956 4.62051 5.68387 4.53949C5.56823 4.45845 5.44821 4.34715 5.3238 4.20539C5.1994 4.06361 5.05911 3.86547 4.90285 3.61095C4.74672 3.35644 4.58472 3.05563 4.41694 2.70854L4.27813 2.45681C4.19136 2.29487 4.07282 2.05908 3.92241 1.74964C3.7719 1.44008 3.63886 1.14064 3.52321 0.851379C3.47698 0.729899 3.40753 0.637409 3.31499 0.573759L3.27156 0.547659C3.24268 0.524559 3.19633 0.500027 3.13275 0.473889C3.06907 0.447781 3.00263 0.429058 2.93315 0.417538L0.555472 0.434802C0.312512 0.434802 0.147652 0.489846 0.060848 0.599779L0.026108 0.651779C0.00875397 0.680749 0 0.727009 0 0.790679C0 0.854329 0.017355 0.932439 0.052095 1.02493C0.399192 1.8407 0.776652 2.62744 1.18447 3.38528C1.5923 4.14312 1.94669 4.75358 2.24743 5.21611C2.54824 5.67898 2.85486 6.11583 3.16727 6.52644C3.47969 6.93722 3.68649 7.20046 3.78767 7.3161C3.88897 7.43197 3.96854 7.51859 4.02638 7.57643L4.24337 7.78465C4.38221 7.92353 4.58608 8.08984 4.8551 8.2836C5.12417 8.4775 5.42206 8.66834 5.74892 8.8565C6.07583 9.04442 6.45616 9.19767 6.89008 9.31625C7.32396 9.43492 7.74625 9.48259 8.15701 9.45959H9.15502C9.35732 9.44209 9.51062 9.3785 9.61492 9.26867L9.64942 9.22517C9.67262 9.19059 9.69442 9.137 9.71442 9.06475C9.73472 8.9925 9.74482 8.91284 9.74482 8.82617C9.73892 8.57742 9.75782 8.35325 9.80112 8.15373C9.84442 7.95422 9.89362 7.8038 9.94882 7.7025C10.0039 7.60129 10.0661 7.51589 10.1353 7.44664C10.2046 7.37726 10.2541 7.33523 10.2831 7.32075C10.3119 7.30619 10.3349 7.29632 10.3522 7.29039C10.4911 7.24414 10.6545 7.28894 10.8426 7.425C11.0307 7.56096 11.2071 7.72882 11.3721 7.92833C11.537 8.12801 11.7351 8.35209 11.9664 8.60075C12.198 8.84959 12.4004 9.0345 12.5738 9.15617L12.7473 9.26034C12.8632 9.32975 13.0136 9.39342 13.1988 9.45125C13.3836 9.50909 13.5456 9.52359 13.6846 9.49467L15.906 9.46C16.1257 9.46 16.2966 9.42359 16.4179 9.35142C16.5395 9.27909 16.6116 9.19942 16.6349 9.11284C16.6581 9.02609 16.6594 8.92767 16.6393 8.81759C16.6187 8.70784 16.5985 8.63109 16.5783 8.58775Z" fill="#C3C3C3"/>
</svg>

<svg width="17" height="10" fill="none" xmlns="http://www.w3.org/2000/svg"><path d="M16.578 8.588a1.142 1.142 0 00-.056-.109c-.29-.52-.842-1.16-1.658-1.918l-.017-.017-.008-.008-.01-.01h-.008c-.37-.352-.605-.59-.703-.71-.18-.232-.22-.467-.121-.704.069-.18.33-.558.78-1.137.238-.306.426-.552.565-.737 1-1.33 1.434-2.181 1.301-2.551L16.592.6c-.035-.052-.125-.1-.27-.143a1.366 1.366 0 00-.555-.022l-2.499.018a.324.324 0 00-.174.004l-.112.026-.044.022-.034.026a.384.384 0 00-.096.09.594.594 0 00-.086.153 14.2 14.2 0 01-.93 1.952c-.213.359-.41.67-.59.933a4.49 4.49 0 01-.45.581 3.144 3.144 0 01-.33.3c-.099.075-.174.107-.226.095a6.357 6.357 0 01-.147-.035.577.577 0 01-.195-.212.95.95 0 01-.1-.339 3.713 3.713 0 01-.03-.351 7.313 7.313 0 01.004-.417c.006-.179.008-.3.008-.364 0-.22.005-.459.013-.716l.022-.612c.006-.15.009-.31.009-.477 0-.168-.01-.3-.03-.395A1.35 1.35 0 009.657.44.468.468 0 009.48.232a1.003 1.003 0 00-.29-.118A5.775 5.775 0 008.018.001C6.942-.01 6.251.06 5.944.21c-.121.063-.231.15-.33.26-.104.127-.118.197-.043.208.347.052.593.176.738.373l.052.104c.04.076.08.209.121.4.04.19.067.402.078.633.03.422.03.784 0 1.085-.029.3-.056.535-.082.702a1.408 1.408 0 01-.221.6.15.15 0 01-.044.043.65.65 0 01-.234.043c-.081 0-.18-.04-.295-.122a2.083 2.083 0 01-.36-.334 4.466 4.466 0 01-.421-.594 10.375 10.375 0 01-.486-.902l-.139-.252a21.642 21.642 0 01-.356-.707c-.15-.31-.283-.61-.399-.899a.572.572 0 00-.208-.277L3.272.548a.921.921 0 00-.338-.13L.554.435C.313.435.148.49.061.6L.026.652A.28.28 0 000 .79a.69.69 0 00.052.234 28.64 28.64 0 001.132 2.36c.408.758.763 1.369 1.063 1.831.301.463.608.9.92 1.31.313.411.52.674.62.79a5.3 5.3 0 00.24.26l.216.209c.14.139.343.305.612.499.27.193.567.384.894.572.327.188.707.342 1.141.46.434.119.856.167 1.267.144h.998c.202-.018.356-.082.46-.191l.034-.044a.574.574 0 00.065-.16.881.881 0 00.03-.239 2.86 2.86 0 01.057-.672c.043-.2.093-.35.148-.452a1.109 1.109 0 01.334-.381.57.57 0 01.07-.03c.138-.047.302-.002.49.134s.364.304.53.503c.164.2.362.424.593.673.232.249.434.433.608.555l.173.104c.116.07.267.133.452.191a.972.972 0 00.486.044l2.221-.035c.22 0 .39-.036.512-.109.122-.072.194-.152.217-.238a.672.672 0 00.004-.295 1.07 1.07 0 00-.06-.23z" fill="#C3C3C3"/></svg>
